X:1
T:Jehovah reigns, let all the earth
T:Jehovah reigns, let all the earth (Joseph Stephenson)
C:Joseph Stephenson
Z:p50, Church Harmony
Z:Sacred to Devotion, 4th ed.
Z:London: [c1763-1771]
%%score [ 1 2 3 4 ]
L:1/8
M:2/2
K:G
V:1 treble nm="SOPRANO" snm="S."
V:2 treble nm="ALTO" snm="A."
V:3 treble-8 transpose=-12 nm="TENOR" snm="T."
V:4 bass nm="BASS" snm="B."
V:1
 d4 | B2 A2 B4- | B6 G2 | G4 F4 | G6 F2 | G2 A2 (Bc)(dc) | B4 A4 | A6 B2 | A2 G2 F2 G2 | A4 B4 | %10
w: You|who to serve|_ this|Lord a-|spire, Ab-|hor what’s ill, _ and _|truth es-|teem; He’ll|keep his ser- vants’|souls en-|
w: Je-|ho- vah reigns,|_ let|all the|earth In|his just go- * vern- *|ment re-|joice; Let|all the isles with|sa- cred|
w: Dark-|ness and clouds|_ of|aw- ful|shade His|dazz- ling glo- * ry _|shroud in|state Jus-|tice and truth his|guards are|
 d6 z2 | z8 | z4 z2 A2 | d2 c2 B2 A2 | B2 A2 G2 d2 | B2 c2 d2 e2 | Td6 c2 | B8- | B4 |] %19
w: tire,||And|them from wick- ed|hands re- deem, and|them from wick- ed|hands re-|deem.|_|
w: mirth||In|his ap- plause u-|nite their voice, in|his ap- plause u-|nite their|voice.|_|
w: made,||And|fix’d by his pa-|vi- lion wait, and|fix’d by his pa-|vi- lion|wait.|_|
V:2
 z4 | z4 F4 | E2 D2 D2 D2 | E4 D4 | D6 D2 | D2 D2 G2 A2 | G4 E4 | F6 D2 | (DC)(B,C) D2 G2 | E4 D4 | %10
w: |You|who to serve this|Lord a-|spire, Ab-|hor what’s ill, and|truth es-|teem; He’ll|keep _ his _ ser- vants’|souls en-|
w: |Je-|ho- vah reigns, let|all the|earth In|his just go- vern-|ment re-|joice; Let|all _ the _ isles with|sa- cred|
w: |Dark-|ness and clouds of|aw- ful|shade His|dazz- ling glo- ry|shroud in|state Jus-|tice _ and _ truth his|guards are|
 D6 z2 | z8 | z8 | z4 z2 D2 | G2 F2 E2 D2 | D2 (EF) G2 G2 | TF6 F2 | G8- | G4 |] %19
w: tire,|||And|them from wick- ed|hands, from _ wick- ed|hands re-|deem.|_|
w: mirth|||In|his ap- plause, in|his ap- * plause u-|nite their|voice.|_|
w: made,|||And|fix’d by his, and|fix’d by _ his pa-|vi- lion|wait.|_|
V:3
 G4 | B2 ^c2 d4- | d6 B2 | (c2 B2) A4 | G6 A2 | B2 A2 G2 A2 | B4 ^c4 | d6 B2 | (cd) e2 d2 B2 | %9
w: You|who to serve|_ this|Lord _ a-|spire, Ab-|hor what’s ill, and|truth es-|teem; He’ll|keep _ his ser- vants’|
w: Je-|ho- vah reigns,|_ let|all _ the|earth In|his just go- vern-|ment re-|joice; Let|all _ the isles with|
w: Dark-|ness and clouds|_ of|aw- * ful|shade His|dazz- ling glo- ry|shroud in|state Jus-|tice _ and truth his|
 c4 B4 | A6 A2 | d2 c2 B2 A2 | (B2 A2 G2) F2 | B8- | B6 B2 | d2 c2 B2 c2 | TA6 (A>G) | G8- | G4 |] %19
w: souls en-|tire, And|them from wick- ed|hands _ _ re-|deem,|_ and|them from wick- ed|hands re- *|deem.|_|
w: sa- cred|mirth In|his ap- plause u-|nite _ _ their|voice,|_ in|his ap- plause u-|nite their _|voice.|_|
w: guards are|made, And|fix’d by his pa-|vi- * * lion|wait,|_ and|fix’d by his pa-|vi- lion _|wait.|_|
V:4
 z4 | z4 D,4 | E,2 F,2 G,2 G,2 | C,4 D,4 | G,,6 D,2 | G,2 F,2 E,2 F,2 | G,4 A,4 | D,6 G,2 | %8
w: |You|who to serve this|Lord a-|spire, Ab-|hor what’s ill, and|truth es-|teem; He’ll|
w: |Je-|ho- vah reigns, let|all the|earth In|his just go- vern-|ment re-|joice; Let|
w: |Dark-|ness and clouds of|aw- ful|shade His|dazz- ling glo- ry|shroud in|state Jus-|
 F,2 G,2 D,2 E,2 | C,4 G,,4 | D,6 z2 | z4 z2 D,2 | G,2 F,2 E,2 D,2 | %13
w: keep his ser- vants’|souls en-|tire,|And|them from wick- ed|
w: all the isles with|sa- cred|mirth|In|his ap- plause u-|
w: tice and truth his|guards are|made,|And|fix’d by his pa-|
"^Notes:The alto part is printed in the alto clef in the source.The text is indicated in the source by the heading ‘Ps. 97th’, and the first verse is underlaid (in full for the soprano andtenor parts, and in part for the alto and bass parts).This first verse has here been given in full and three other verses selected from the text have been added editorially." (B,,2 A,,2 B,,2) B,,2 | %14
w: hands _ _ re-|
w: nite _ _ their|
w: vi- * * lion|
 E,6 G,2 | B,2 A,2 G,2 C,2 | D,6 D,2 | G,,8- | G,,4 |] %19
w: deem, and|them from wick- ed|hands re-|deem.|_|
w: voice, in|his ap- plause u-|nite their|voice.|_|
w: wait, and|fix’d by his pa-|vi- lion|wait.|_|

